X:14
T:Gorman's
R:reel
M:C|
K:D
"D"~A3B defa|"D"agfd efdB|"A"~A3B defe|"D"dBAF "A7"EFD2:|
"Bm"~a3f defa|"A"~a2fd efdf|"Bm"~a3f defe|"D"dBAF EFD2|
"Bm"~a3f defa|"A"~a2fd efdB|"D"~A3B defe|"D"dBAF "A7"EFD2||
